public/front/assets/imgs/theme/icons/icon-headphone.svg

<svg width="36" height="36" viewBox="0 0 36 36" fill="none" xmlns="http://www.w3.org/2000/svg">
<path d="M31.5 18.636V16.5C31.5 12.9196 30.0777 9.4858 27.546 6.95406C25.0142 4.42232 21.5805 3 18 3C14.4196 3 10.9858 4.42232 8.45411 6.95406C5.92236 9.4858 4.50005 12.9196 4.50005 16.5V18.636C2.92679 19.3287 1.63925 20.5409 0.85298 22.0696C0.0667119 23.5983 -0.170561 25.3506 0.180884 27.0334C0.532329 28.7161 1.45116 30.227 2.78355 31.3132C4.11595 32.3994 5.78103 32.9949 7.50005 33H10.5V18H7.50005V16.5C7.50005 13.7152 8.60629 11.0445 10.5754 9.07538C12.5446 7.10625 15.2153 6 18 6C20.7848 6 23.4555 7.10625 25.4247 9.07538C27.3938 11.0445 28.5 13.7152 28.5 16.5V18H25.5V30H19.5V33H28.5C30.2191 32.9949 31.8841 32.3994 33.2165 31.3132C34.5489 30.227 35.4678 28.7161 35.8192 27.0334C36.1707 25.3506 35.9334 23.5983 35.1471 22.0696C34.3608 20.5409 33.0733 19.3287 31.5 18.636ZM7.50005 30C6.30657 30 5.16198 29.5259 4.31807 28.682C3.47415 27.8381 3.00005 26.6935 3.00005 25.5C3.00005 24.3065 3.47415 23.1619 4.31807 22.318C5.16198 21.4741 6.30657 21 7.50005 21V30ZM28.5 30V21C29.6935 21 30.8381 21.4741 31.682 22.318C32.5259 23.1619 33 24.3065 33 25.5C33 26.6935 32.5259 27.8381 31.682 28.682C30.8381 29.5259 29.6935 30 28.5 30Z" fill="#253D4E"/>
</svg>

<?xml version="1.0" encoding="utf-8"?>
<!-- Generator: Adobe Illustrator 28.1.0, SVG Export Plug-In . SVG Version: 6.00 Build 0)  -->
<svg version="1.1" id="Layer_1" xmlns="http://www.w3.org/2000/svg" xmlns:xlink="http://www.w3.org/1999/xlink" x="0px" y="0px"
	 viewBox="0 0 36 36" style="enable-background:new 0 0 36 36;" xml:space="preserve">
<path d="M31.5,18.6v-2.1c0-3.6-1.4-7-4-9.5c-2.5-2.5-6-4-9.5-4c-3.6,0-7,1.4-9.5,4c-2.5,2.5-4,6-4,9.5v2.1c-1.6,0.7-2.9,1.9-3.6,3.4
	c-0.8,1.5-1,3.3-0.7,5c0.4,1.7,1.3,3.2,2.6,4.3c1.3,1.1,3,1.7,4.7,1.7h3V18h-3v-1.5c0-2.8,1.1-5.5,3.1-7.4c2-2,4.6-3.1,7.4-3.1
	c2.8,0,5.5,1.1,7.4,3.1c2,2,3.1,4.6,3.1,7.4V18h-3v12h-6v3h9c1.7,0,3.4-0.6,4.7-1.7c1.3-1.1,2.3-2.6,2.6-4.3c0.4-1.7,0.1-3.4-0.7-5
	C34.4,20.5,33.1,19.3,31.5,18.6z M7.5,30c-1.2,0-2.3-0.5-3.2-1.3c-0.8-0.8-1.3-2-1.3-3.2s0.5-2.3,1.3-3.2c0.8-0.8,2-1.3,3.2-1.3V30z
	 M28.5,30v-9c1.2,0,2.3,0.5,3.2,1.3c0.8,0.8,1.3,2,1.3,3.2s-0.5,2.3-1.3,3.2C30.8,29.5,29.7,30,28.5,30z"/>
</svg>
